app/images/svg/logo.svg

<?xml version="1.0" encoding="UTF-8"?>
<svg width="68px" height="33px" viewBox="0 0 68 33" version="1.1" xmlns="http://www.w3.org/2000/svg" xmlns:xlink="http://www.w3.org/1999/xlink">
    <!-- Generator: sketchtool 39 (31667) - http://www.bohemiancoding.com/sketch -->
    <title>2E7954D2-6FC2-4266-9AC7-3428E86871FC</title>
    <desc>Created with sketchtool.</desc>
    <defs></defs>
    <g id="Symbols" stroke="none" stroke-width="1" fill="none" fill-rule="evenodd">
        <g id="Logo">
            <g id="logo">
                <text id="trul" font-family="Lato-Bold, Lato" font-size="30" font-weight="bold" line-spacing="30" fill="#47CCB0">
                    <tspan x="0" y="35">trul</tspan>
                </text>
                <g transform="translate(50.000000, 0.000000)">
                    <path d="M4.10551579,25.3961005 C5.26898064,24.235363 6.70798215,22.8881131 8.21166454,21.5379429 C8.33093848,21.4306691 8.45041022,21.3237847 8.57007976,21.2170949 C7.42540599,20.2438432 6.28488603,19.3023258 5.22328864,18.4540646 C5.21102498,18.4671088 5.19876133,18.480153 5.18669547,18.4931971 C3.80466063,19.9477208 2.59767958,21.4653238 1.66742197,22.8840246 C2.38959304,23.719047 3.21046674,24.568671 4.10551579,25.3961005 Z M16.3597361,22.8787096 C15.4298741,21.4619557 14.2244754,19.9468836 12.8442208,18.4946963 C12.8096057,18.4579 12.7747927,18.4214931 12.7401775,18.3848915 C11.698558,19.2534004 10.5831588,20.2122451 9.46340793,21.2016561 C9.58129727,21.3030892 9.6993844,21.404717 9.81707593,21.5065395 C11.3583405,22.8386036 12.8313637,24.1702783 14.0094659,25.3105735 C14.870691,24.5084536 15.6614989,23.6868648 16.3597361,22.8787096 Z M9.01159113,29.2124193 C10.4351642,28.3045832 11.9141214,27.1913499 13.3084199,25.9455331 C13.4005952,25.8645424 13.4917814,25.7831622 13.582572,25.7017821 C12.4177225,24.5848497 10.9775342,23.2895819 9.47721444,21.9941194 C9.32391874,21.8617306 9.17022745,21.7297313 9.01653615,21.5979267 C8.86126245,21.7361561 8.70638435,21.8745801 8.55150625,22.0133936 C7.08560383,23.3285197 5.67726147,24.6411149 4.52665367,25.7788791 C4.59014776,25.8355337 4.65383965,25.8921882 4.71792713,25.9486481 C6.11143443,27.1931021 7.58920491,28.3051673 9.01159113,29.2124193 Z M17.8960952,20.9101673 C17.6417232,19.0026017 16.9244972,17.2879731 15.7897135,15.9467586 C15.0345097,16.5152513 14.144999,17.2229469 13.1803241,18.0196155 C13.2054448,18.0460932 13.2309611,18.0725709 13.255884,18.0992434 C14.6222926,19.5360503 15.8118672,21.0341844 16.7326303,22.4376994 C17.1634407,21.917295 17.5531084,21.4050675 17.8960952,20.9101673 Z M2.4882759,15.6363266 C3.2622708,16.1861291 4.18244056,16.8819486 5.18291748,17.6706349 C6.27794322,16.5429946 7.43072683,15.5128936 8.56016993,14.6317298 C7.87914146,14.1198917 7.21136564,13.6656816 6.57444676,13.2807809 C4.91450166,13.686124 3.54215906,14.5119959 2.4882759,15.6363266 Z M12.7788872,17.6011503 C13.7471225,16.8040924 14.6419738,16.0948393 15.404694,15.5226475 C14.3697998,14.4602281 13.0407756,13.6783559 11.4451157,13.2852782 C10.8105705,13.6690108 10.1457617,14.1216634 9.46789801,14.6315546 C10.574594,15.4948069 11.7036415,16.5007665 12.7788872,17.6011503 Z M7.33516922,13.1279109 C7.87872607,13.4686171 8.44186522,13.8562435 9.0141032,14.2847546 C9.58396758,13.857801 10.1451287,13.4711481 10.6867076,13.1314153 C10.1510627,13.0451679 9.588517,13 9.00005934,13 C8.41971152,13 7.86428661,13.0438051 7.33516922,13.1279109 Z M5.63242001,18.02678 C6.70845687,18.8841916 7.86222948,19.8358329 9.0169911,20.8195978 C10.1490056,19.8171427 11.2800311,18.8458379 12.3376725,17.9662317 C11.2557016,16.8605912 10.1228959,15.8484016 9.01402408,14.9802821 C7.88517438,15.8641714 6.73159957,16.8973875 5.63242001,18.02678 Z M13.6825603,26.3692743 C12.3349428,27.5728435 10.9060292,28.6479177 9.52498335,29.5323912 C10.7475907,30.276883 11.9158028,30.8597827 12.9376422,31.2337808 C14.3133474,30.6335538 15.416483,29.7074168 16.2373567,28.5507678 C15.7855794,27.9326293 15.0167274,27.0993592 13.9885583,26.0947624 C13.8870865,26.1866558 13.785219,26.2783544 13.6825603,26.3692743 Z M4.3437274,26.3724088 C4.27093668,26.3079667 4.19854155,26.2431352 4.12634422,26.1783036 C4.11902559,26.1857018 4.11150915,26.1932947 4.10399272,26.2006929 C3.13575735,27.1760862 2.39163038,27.9957281 1.91849065,28.6228223 C2.75103461,29.7313831 3.83755492,30.6228653 5.14462322,31.2110217 C6.15182537,30.8372182 7.29867495,30.2624955 8.49794177,29.5324106 C7.11808274,28.6485213 5.69035589,27.5746152 4.3437274,26.3724088 Z M5.82810443,31.4832946 C6.78585636,31.8181602 7.84686035,32 9.00003956,32 C10.1955482,32 11.2763322,31.8249743 12.2398204,31.5021795 C11.2591236,31.1166947 10.1577682,30.5548214 9.01151201,29.85394 C7.88246451,30.5443082 6.79713101,31.098978 5.82810443,31.4832946 Z M14.41205,25.7040989 C15.3834502,26.6631384 16.1151157,27.4640901 16.5568051,28.0654853 C17.0738567,27.219171 17.4538322,26.2679191 17.6937647,25.2438535 C17.424162,24.6555024 17.0797907,24.0239304 16.6713318,23.36627 C15.9958418,24.1448324 15.2307479,24.9364391 14.41205,25.7040989 Z M17.9758683,21.727434 C17.8112979,21.9554151 17.6372332,22.1869007 17.4528827,22.4209172 C17.3219385,22.5881553 17.1856537,22.7567562 17.0450173,22.9263306 C17.3553669,23.426098 17.6287277,23.9108743 17.8613416,24.3732614 C17.9535168,23.767583 18,23.1412676 18,22.5001558 C18,22.2400509 17.9918902,21.9822823 17.9758683,21.727434 Z M4.77505203,18.0978806 C3.78130034,17.3121146 2.86963602,16.6199942 2.10533337,16.0752536 C1.03681294,17.390185 0.357366875,19.0466014 0.107742147,20.8833002 C0.456662923,21.3883242 0.854242719,21.9114543 1.29454751,22.4433454 C2.21570627,21.0378835 3.40686325,19.5368291 4.77505203,18.0978806 Z M1.35600425,23.3720717 C0.9473476,24.0307056 0.603174045,24.6630564 0.333967029,25.2519915 C0.601393837,26.3105171 1.02547895,27.2909724 1.59257411,28.1579238 C2.05720841,27.5419269 2.77661026,26.742338 3.70845027,25.7957586 C2.85474162,25.001621 2.05720841,24.1796429 1.35600425,23.3720717 Z M0.571248981,22.4232535 C0.378788711,22.1787237 0.19700969,21.9371143 0.026109718,21.699204 C0.00890104021,21.9633974 0,22.2303164 0,22.5001558 C0,23.1513914 0.0528128386,23.7874413 0.155867104,24.4018807 C0.390261163,23.9326795 0.667380215,23.4401156 0.982477039,22.932366 C0.840653798,22.7616235 0.703182177,22.5916597 0.571248981,22.4232535 Z" id="Combined-Shape" fill="#F38A1A"></path>
                    <path d="M1,8.60766765 C3.75406119,9.50461773 5.5256644,13 5.5256644,13 C7.2678634,11.8377606 11.6608115,11.9120251 13.4681766,13 C13.4681766,13 15.2421639,9.50461773 18,8.60766765 C18,8.60766765 16.212304,7.3942683 14.1122876,8.40137738 C14.1122876,8.40137738 14.8378562,5.18634358 15.8145525,4.03854454 C15.8145525,4.03854454 13.3563214,4.02142245 11.6508777,7.42851249 C11.6508777,7.42851249 11.1150457,1.69591228 9.5,0 C7.88713975,1.69591228 7.3405792,7.42851249 7.3405792,7.42851249 C5.6373209,4.02142245 3.18246734,4.03854454 3.18246734,4.03854454 C4.15777295,5.18634358 4.88234813,8.40137738 4.88234813,8.40137738 C2.78531192,7.3942683 1,8.60766765 1,8.60766765" id="Fill-29" fill="#47CCB0"></path>
                </g>
            </g>
        </g>
    </g>
</svg>

<?xml version="1.0" encoding="utf-8"?>
<!-- Generator: Adobe Illustrator 20.0.0, SVG Export Plug-In . SVG Version: 6.00 Build 0)  -->
<svg version="1.1" id="Layer_1" xmlns="http://www.w3.org/2000/svg" xmlns:xlink="http://www.w3.org/1999/xlink" x="0px" y="0px"
	 viewBox="0 0 68 35.3" style="enable-background:new 0 0 68 35.3;" xml:space="preserve">
<style type="text/css">
	.st0{fill:#47CCB0;}
	.st1{font-family:'Lato-Bold';}
	.st2{font-size:30px;}
	.st3{fill:#F38A1A;}
</style>
<title>2E7954D2-6FC2-4266-9AC7-3428E86871FC</title>
<desc>Created with sketchtool.</desc>
<g id="Symbols">
	<g id="Logo">
		<g id="logo">
			<text transform="matrix(1 0 0 1 0 35)" class="st0 st1 st2">trul</text>
			<g transform="translate(50.000000, 0.000000)">
				<path id="Combined-Shape" class="st3" d="M4.1,25.4c1.2-1.2,2.6-2.5,4.1-3.9c0.1-0.1,0.2-0.2,0.4-0.3c-1.1-1-2.3-1.9-3.3-2.8
					c0,0,0,0,0,0c-1.4,1.5-2.6,3-3.5,4.4C2.4,23.7,3.2,24.6,4.1,25.4z M16.4,22.9c-0.9-1.4-2.1-2.9-3.5-4.4c0,0-0.1-0.1-0.1-0.1
					c-1,0.9-2.2,1.8-3.3,2.8c0.1,0.1,0.2,0.2,0.4,0.3c1.5,1.3,3,2.7,4.2,3.8C14.9,24.5,15.7,23.7,16.4,22.9z M9,29.2
					c1.4-0.9,2.9-2,4.3-3.3c0.1-0.1,0.2-0.2,0.3-0.2c-1.2-1.1-2.6-2.4-4.1-3.7c-0.2-0.1-0.3-0.3-0.5-0.4c-0.2,0.1-0.3,0.3-0.5,0.4
					c-1.5,1.3-2.9,2.6-4,3.8c0.1,0.1,0.1,0.1,0.2,0.2C6.1,27.2,7.6,28.3,9,29.2z M17.9,20.9c-0.3-1.9-1-3.6-2.1-5
					c-0.8,0.6-1.6,1.3-2.6,2.1c0,0,0.1,0.1,0.1,0.1c1.4,1.4,2.6,2.9,3.5,4.3C17.2,21.9,17.6,21.4,17.9,20.9z M2.5,15.6
					c0.8,0.5,1.7,1.2,2.7,2c1.1-1.1,2.2-2.2,3.4-3c-0.7-0.5-1.3-1-2-1.4C4.9,13.7,3.5,14.5,2.5,15.6z M12.8,17.6
					c1-0.8,1.9-1.5,2.6-2.1c-1-1.1-2.4-1.8-4-2.2c-0.6,0.4-1.3,0.8-2,1.3C10.6,15.5,11.7,16.5,12.8,17.6z M7.3,13.1
					c0.5,0.3,1.1,0.7,1.7,1.2c0.6-0.4,1.1-0.8,1.7-1.2C10.2,13,9.6,13,9,13C8.4,13,7.9,13,7.3,13.1z M5.6,18
					c1.1,0.9,2.2,1.8,3.4,2.8c1.1-1,2.3-2,3.3-2.9c-1.1-1.1-2.2-2.1-3.3-3C7.9,15.9,6.7,16.9,5.6,18z M13.7,26.4
					c-1.3,1.2-2.8,2.3-4.2,3.2c1.2,0.7,2.4,1.3,3.4,1.7c1.4-0.6,2.5-1.5,3.3-2.7c-0.5-0.6-1.2-1.5-2.2-2.5
					C13.9,26.2,13.8,26.3,13.7,26.4z M4.3,26.4c-0.1-0.1-0.1-0.1-0.2-0.2c0,0,0,0,0,0c-1,1-1.7,1.8-2.2,2.4c0.8,1.1,1.9,2,3.2,2.6
					c1-0.4,2.2-0.9,3.4-1.7C7.1,28.6,5.7,27.6,4.3,26.4z M5.8,31.5c1,0.3,2,0.5,3.2,0.5c1.2,0,2.3-0.2,3.2-0.5
					c-1-0.4-2.1-0.9-3.2-1.6C7.9,30.5,6.8,31.1,5.8,31.5z M14.4,25.7c1,1,1.7,1.8,2.1,2.4c0.5-0.8,0.9-1.8,1.1-2.8
					c-0.3-0.6-0.6-1.2-1-1.9C16,24.1,15.2,24.9,14.4,25.7z M18,21.7c-0.2,0.2-0.3,0.5-0.5,0.7c-0.1,0.2-0.3,0.3-0.4,0.5
					c0.3,0.5,0.6,1,0.8,1.4c0.1-0.6,0.1-1.2,0.1-1.9C18,22.2,18,22,18,21.7z M4.8,18.1c-1-0.8-1.9-1.5-2.7-2c-1.1,1.3-1.7,3-2,4.8
					c0.3,0.5,0.7,1,1.2,1.6C2.2,21,3.4,19.5,4.8,18.1z M1.4,23.4c-0.4,0.7-0.8,1.3-1,1.9c0.3,1.1,0.7,2,1.3,2.9
					c0.5-0.6,1.2-1.4,2.1-2.4C2.9,25,2.1,24.2,1.4,23.4z M0.6,22.4c-0.2-0.2-0.4-0.5-0.5-0.7c0,0.3,0,0.5,0,0.8
					c0,0.7,0.1,1.3,0.2,1.9c0.2-0.5,0.5-1,0.8-1.5C0.8,22.8,0.7,22.6,0.6,22.4z"/>
				<path id="Fill-29" class="st0" d="M1,8.6C3.8,9.5,5.5,13,5.5,13c1.7-1.2,6.1-1.1,7.9,0c0,0,1.8-3.5,4.5-4.4c0,0-1.8-1.2-3.9-0.2
					c0,0,0.7-3.2,1.7-4.4c0,0-2.5,0-4.2,3.4c0,0-0.5-5.7-2.2-7.4C7.9,1.7,7.3,7.4,7.3,7.4C5.6,4,3.2,4,3.2,4c1,1.1,1.7,4.4,1.7,4.4
					C2.8,7.4,1,8.6,1,8.6"/>
			</g>
		</g>
	</g>
</g>
</svg>
